dist/images/svg/facebook-messenger-1306077.svg

<svg xmlns="http://www.w3.org/2000/svg" data-name="Layer 1" viewBox="0 0 24 24"><path d="M11.99121,1.00044a10.61443,10.61443,0,0,0-11,10.70019,10.46132,10.46132,0,0,0,3.41406,7.86524L4.457,21.2563a1.79959,1.79959,0,0,0,1.79883,1.74316,1.81992,1.81992,0,0,0,.72656-.15234l1.9209-.84668a11.89548,11.89548,0,0,0,3.08789.40039,10.61525,10.61525,0,0,0,11.001-10.7002A10.61525,10.61525,0,0,0,11.99121,1.00044Zm0,19.40039a9.86205,9.86205,0,0,1-2.63476-.35059,1.79856,1.79856,0,0,0-1.19629.0918l-1.71387.75586-.04492-1.49316a1.80968,1.80968,0,0,0-.60157-1.27442,8.4876,8.4876,0,0,1-2.80859-6.42969,8.65949,8.65949,0,0,1,9-8.70019,8.70522,8.70522,0,1,1,0,17.40039ZM15.72559,8.5854l-2.3125,2.75488L10.06641,9.28364a.99809.99809,0,0,0-1.28907.21L5.72559,13.13032a.99955.99955,0,1,0,1.53125,1.28516l2.498-2.97559,3.34668,2.05567a.99823.99823,0,0,0,1.28906-.209l2.86622-3.416A.99955.99955,0,1,0,15.72559,8.5854Z"/></svg>

<svg xmlns="http://www.w3.org/2000/svg" data-name="Layer 1" viewBox="0 0 24 24"><path d="M11.991 1a10.614 10.614 0 00-11 10.7 10.461 10.461 0 003.414 7.866l.052 1.69A1.8 1.8 0 006.256 23a1.82 1.82 0 00.726-.152L8.903 22a11.895 11.895 0 003.088.4 10.615 10.615 0 0011.001-10.7 10.615 10.615 0 00-11-10.7zm0 19.4a9.862 9.862 0 01-2.635-.35 1.799 1.799 0 00-1.196.092l-1.714.756-.045-1.493A1.81 1.81 0 005.8 18.13 8.488 8.488 0 012.99 11.7a8.66 8.66 0 019-8.7 8.705 8.705 0 110 17.4zm3.735-11.815l-2.313 2.755-3.347-2.056a.998.998 0 00-1.289.21L5.726 13.13a1 1 0 101.53 1.285l2.499-2.975 3.347 2.056a.998.998 0 001.289-.21l2.866-3.415a1 1 0 10-1.531-1.286z"/></svg>
